images/29868.svg

<?xml version="1.0" encoding="UTF-8"?>
<svg xmlns="http://www.w3.org/2000/svg" xmlns:xlink="http://www.w3.org/1999/xlink" width="300pt" height="300pt" viewBox="0 0 300 300" version="1.1">
<defs>
<g>
<symbol overflow="visible" id="glyph0-0">
<path style="stroke:none;" d="M 0.59375 2.125 L 0.59375 -8.46875 L 6.59375 -8.46875 L 6.59375 2.125 Z M 1.265625 1.453125 L 5.9375 1.453125 L 5.9375 -7.78125 L 1.265625 -7.78125 Z M 1.265625 1.453125 "/>
</symbol>
<symbol overflow="visible" id="glyph0-1">
<path style="stroke:none;" d="M 7.734375 -8.078125 L 7.734375 -6.828125 C 7.328125 -7.203125 6.898438 -7.476562 6.453125 -7.65625 C 6.003906 -7.84375 5.523438 -7.9375 5.015625 -7.9375 C 4.015625 -7.9375 3.25 -7.628906 2.71875 -7.015625 C 2.1875 -6.398438 1.921875 -5.515625 1.921875 -4.359375 C 1.921875 -3.210938 2.1875 -2.332031 2.71875 -1.71875 C 3.25 -1.101562 4.015625 -0.796875 5.015625 -0.796875 C 5.523438 -0.796875 6.003906 -0.890625 6.453125 -1.078125 C 6.898438 -1.265625 7.328125 -1.539062 7.734375 -1.90625 L 7.734375 -0.671875 C 7.316406 -0.390625 6.875 -0.175781 6.40625 -0.03125 C 5.945312 0.101562 5.460938 0.171875 4.953125 0.171875 C 3.617188 0.171875 2.570312 -0.234375 1.8125 -1.046875 C 1.050781 -1.859375 0.671875 -2.960938 0.671875 -4.359375 C 0.671875 -5.765625 1.050781 -6.875 1.8125 -7.6875 C 2.570312 -8.5 3.617188 -8.90625 4.953125 -8.90625 C 5.472656 -8.90625 5.960938 -8.832031 6.421875 -8.6875 C 6.890625 -8.550781 7.328125 -8.347656 7.734375 -8.078125 Z M 7.734375 -8.078125 "/>
</symbol>
<symbol overflow="visible" id="glyph0-2">
<path style="stroke:none;" d="M 1.125 -9.125 L 2.203125 -9.125 L 2.203125 0 L 1.125 0 Z M 1.125 -9.125 "/>
</symbol>
<symbol overflow="visible" id="glyph0-3">
<path style="stroke:none;" d="M 1.171875 -8.75 L 2.765625 -8.75 L 6.65625 -1.4375 L 6.65625 -8.75 L 7.796875 -8.75 L 7.796875 0 L 6.203125 0 L 2.328125 -7.3125 L 2.328125 0 L 1.171875 0 Z M 1.171875 -8.75 "/>
</symbol>
<symbol overflow="visible" id="glyph0-4">
<path style="stroke:none;" d="M 1.171875 -8.75 L 2.359375 -8.75 L 2.359375 -5.15625 L 6.65625 -5.15625 L 6.65625 -8.75 L 7.84375 -8.75 L 7.84375 0 L 6.65625 0 L 6.65625 -4.171875 L 2.359375 -4.171875 L 2.359375 0 L 1.171875 0 Z M 1.171875 -8.75 "/>
</symbol>
<symbol overflow="visible" id="glyph0-5">
<path style="stroke:none;" d="M 4.734375 -7.953125 C 3.867188 -7.953125 3.179688 -7.628906 2.671875 -6.984375 C 2.171875 -6.347656 1.921875 -5.472656 1.921875 -4.359375 C 1.921875 -3.265625 2.171875 -2.394531 2.671875 -1.75 C 3.179688 -1.113281 3.867188 -0.796875 4.734375 -0.796875 C 5.585938 -0.796875 6.265625 -1.113281 6.765625 -1.75 C 7.273438 -2.394531 7.53125 -3.265625 7.53125 -4.359375 C 7.53125 -5.472656 7.273438 -6.347656 6.765625 -6.984375 C 6.265625 -7.628906 5.585938 -7.953125 4.734375 -7.953125 Z M 4.734375 -8.90625 C 5.953125 -8.90625 6.925781 -8.492188 7.65625 -7.671875 C 8.394531 -6.847656 8.765625 -5.742188 8.765625 -4.359375 C 8.765625 -2.984375 8.394531 -1.882812 7.65625 -1.0625 C 6.925781 -0.238281 5.953125 0.171875 4.734375 0.171875 C 3.503906 0.171875 2.519531 -0.238281 1.78125 -1.0625 C 1.039062 -1.882812 0.671875 -2.984375 0.671875 -4.359375 C 0.671875 -5.742188 1.039062 -6.847656 1.78125 -7.671875 C 2.519531 -8.492188 3.503906 -8.90625 4.734375 -8.90625 Z M 4.734375 -8.90625 "/>
</symbol>
<symbol overflow="visible" id="glyph1-0">
<path style="stroke:none;" d="M 0.5 1.765625 L 0.5 -7.046875 L 5.5 -7.046875 L 5.5 1.765625 Z M 1.0625 1.21875 L 4.9375 1.21875 L 4.9375 -6.484375 L 1.0625 -6.484375 Z M 1.0625 1.21875 "/>
</symbol>
<symbol overflow="visible" id="glyph1-1">
<path style="stroke:none;" d="M 4.0625 -3.9375 C 4.53125 -3.832031 4.894531 -3.617188 5.15625 -3.296875 C 5.425781 -2.984375 5.5625 -2.59375 5.5625 -2.125 C 5.5625 -1.40625 5.3125 -0.847656 4.8125 -0.453125 C 4.320312 -0.0546875 3.617188 0.140625 2.703125 0.140625 C 2.398438 0.140625 2.085938 0.109375 1.765625 0.046875 C 1.441406 -0.015625 1.109375 -0.101562 0.765625 -0.21875 L 0.765625 -1.171875 C 1.035156 -1.015625 1.332031 -0.894531 1.65625 -0.8125 C 1.988281 -0.726562 2.332031 -0.6875 2.6875 -0.6875 C 3.300781 -0.6875 3.769531 -0.804688 4.09375 -1.046875 C 4.414062 -1.296875 4.578125 -1.65625 4.578125 -2.125 C 4.578125 -2.550781 4.425781 -2.882812 4.125 -3.125 C 3.820312 -3.363281 3.40625 -3.484375 2.875 -3.484375 L 2.015625 -3.484375 L 2.015625 -4.296875 L 2.90625 -4.296875 C 3.394531 -4.296875 3.765625 -4.394531 4.015625 -4.59375 C 4.273438 -4.789062 4.40625 -5.070312 4.40625 -5.4375 C 4.40625 -5.800781 4.269531 -6.082031 4 -6.28125 C 3.738281 -6.488281 3.363281 -6.59375 2.875 -6.59375 C 2.601562 -6.59375 2.3125 -6.5625 2 -6.5 C 1.6875 -6.445312 1.347656 -6.359375 0.984375 -6.234375 L 0.984375 -7.109375 C 1.359375 -7.210938 1.707031 -7.289062 2.03125 -7.34375 C 2.363281 -7.394531 2.671875 -7.421875 2.953125 -7.421875 C 3.703125 -7.421875 4.296875 -7.25 4.734375 -6.90625 C 5.171875 -6.570312 5.390625 -6.113281 5.390625 -5.53125 C 5.390625 -5.125 5.273438 -4.78125 5.046875 -4.5 C 4.816406 -4.226562 4.488281 -4.039062 4.0625 -3.9375 Z M 4.0625 -3.9375 "/>
</symbol>
<symbol overflow="visible" id="glyph1-2">
<path style="stroke:none;" d="M 4.59375 -6.265625 L 4.59375 -3.546875 L 7.3125 -3.546875 L 7.3125 -2.71875 L 4.59375 -2.71875 L 4.59375 0 L 3.78125 0 L 3.78125 -2.71875 L 1.0625 -2.71875 L 1.0625 -3.546875 L 3.78125 -3.546875 L 3.78125 -6.265625 Z M 4.59375 -6.265625 "/>
</symbol>
</g>
</defs>
<g id="surface20677">
<rect x="0" y="0" width="300" height="300" style="fill:rgb(100%,100%,100%);fill-opacity:1;stroke:none;"/>
<path style="fill:none;stroke-width:1.2;stroke-linecap:butt;stroke-linejoin:miter;stroke:rgb(0%,80%,0%);stroke-opacity:1;stroke-miterlimit:10;" d="M 109.738281 176.347656 L 97.574219 168.457031 "/>
<path style="fill:none;stroke-width:1.2;stroke-linecap:butt;stroke-linejoin:miter;stroke:rgb(0%,0%,0%);stroke-opacity:1;stroke-miterlimit:10;" d="M 97.574219 168.457031 L 85.414062 160.5625 "/>
<path style=" stroke:none;fill-rule:nonzero;fill:rgb(100%,100%,100%);fill-opacity:1;" d="M 103.738281 169.347656 L 115.738281 169.347656 L 115.738281 183.347656 L 103.738281 183.347656 Z M 103.738281 169.347656 "/>
<g style="fill:rgb(0%,80%,0%);fill-opacity:1;">
  <use xlink:href="#glyph0-1" x="103.738281" y="180.486328"/>
  <use xlink:href="#glyph0-2" x="112.117188" y="180.486328"/>
</g>
<path style="fill:none;stroke-width:1.2;stroke-linecap:butt;stroke-linejoin:miter;stroke:rgb(0%,0%,0%);stroke-opacity:1;stroke-miterlimit:10;" d="M 85.414062 160.5625 L 59.578125 173.738281 "/>
<path style="fill:none;stroke-width:1.2;stroke-linecap:butt;stroke-linejoin:miter;stroke:rgb(0%,0%,0%);stroke-opacity:1;stroke-miterlimit:10;" d="M 79.730469 155.800781 L 59.0625 166.339844 "/>
<path style="fill:none;stroke-width:1.2;stroke-linecap:butt;stroke-linejoin:miter;stroke:rgb(0%,0%,0%);stroke-opacity:1;stroke-miterlimit:10;" d="M 86.921875 131.601562 L 85.414062 160.5625 "/>
<path style="fill:none;stroke-width:1.2;stroke-linecap:butt;stroke-linejoin:miter;stroke:rgb(0%,0%,0%);stroke-opacity:1;stroke-miterlimit:10;" d="M 59.578125 173.738281 L 35.25 157.949219 "/>
<path style="fill:none;stroke-width:1.2;stroke-linecap:butt;stroke-linejoin:miter;stroke:rgb(0%,0%,0%);stroke-opacity:1;stroke-miterlimit:10;" d="M 35.25 157.949219 L 36.757812 128.988281 "/>
<path style="fill:none;stroke-width:1.2;stroke-linecap:butt;stroke-linejoin:miter;stroke:rgb(0%,0%,0%);stroke-opacity:1;stroke-miterlimit:10;" d="M 42.214844 155.410156 L 43.421875 132.238281 "/>
<path style="fill:none;stroke-width:1.2;stroke-linecap:butt;stroke-linejoin:miter;stroke:rgb(0%,0%,0%);stroke-opacity:1;stroke-miterlimit:10;" d="M 36.757812 128.988281 L 62.59375 115.816406 "/>
<path style="fill:none;stroke-width:1.2;stroke-linecap:butt;stroke-linejoin:miter;stroke:rgb(0%,0%,0%);stroke-opacity:1;stroke-miterlimit:10;" d="M 62.59375 115.816406 L 86.921875 131.601562 "/>
<path style="fill:none;stroke-width:1.2;stroke-linecap:butt;stroke-linejoin:miter;stroke:rgb(0%,0%,0%);stroke-opacity:1;stroke-miterlimit:10;" d="M 61.3125 123.117188 L 80.773438 135.746094 "/>
<path style="fill:none;stroke-width:1.2;stroke-linecap:butt;stroke-linejoin:miter;stroke:rgb(0%,0%,0%);stroke-opacity:1;stroke-miterlimit:10;" d="M 86.921875 131.601562 L 99.835938 125.015625 "/>
<path style="fill:none;stroke-width:1.2;stroke-linecap:butt;stroke-linejoin:miter;stroke:rgb(0%,0%,100%);stroke-opacity:1;stroke-miterlimit:10;" d="M 99.835938 125.015625 L 112.753906 118.425781 "/>
<path style="fill:none;stroke-width:1.2;stroke-linecap:butt;stroke-linejoin:miter;stroke:rgb(0%,0%,100%);stroke-opacity:1;stroke-miterlimit:10;" d="M 112.753906 118.425781 L 137.082031 134.214844 "/>
<path style="fill:none;stroke-width:1.2;stroke-linecap:butt;stroke-linejoin:miter;stroke:rgb(0%,0%,0%);stroke-opacity:1;stroke-miterlimit:10;" d="M 114.261719 89.464844 L 113.507812 103.945312 "/>
<path style="fill:none;stroke-width:1.2;stroke-linecap:butt;stroke-linejoin:miter;stroke:rgb(0%,0%,100%);stroke-opacity:1;stroke-miterlimit:10;" d="M 113.507812 103.945312 L 112.753906 118.425781 "/>
<path style=" stroke:none;fill-rule:nonzero;fill:rgb(100%,100%,100%);fill-opacity:1;" d="M 108.753906 111.425781 L 117.753906 111.425781 L 117.753906 125.425781 L 108.753906 125.425781 Z M 108.753906 111.425781 "/>
<g style="fill:rgb(0%,0%,100%);fill-opacity:1;">
  <use xlink:href="#glyph0-3" x="108.753906" y="122.564453"/>
</g>
<path style="fill:none;stroke-width:1.2;stroke-linecap:butt;stroke-linejoin:miter;stroke:rgb(0%,0%,100%);stroke-opacity:1;stroke-miterlimit:10;" d="M 137.082031 134.214844 L 150 127.625 "/>
<path style="fill:none;stroke-width:1.2;stroke-linecap:butt;stroke-linejoin:miter;stroke:rgb(0%,0%,0%);stroke-opacity:1;stroke-miterlimit:10;" d="M 150 127.625 L 162.917969 121.039062 "/>
<path style="fill:none;stroke-width:1.2;stroke-linecap:butt;stroke-linejoin:miter;stroke:rgb(0%,0%,100%);stroke-opacity:1;stroke-miterlimit:10;" d="M 136.566406 126.816406 L 146.898438 121.546875 "/>
<path style="fill:none;stroke-width:1.2;stroke-linecap:butt;stroke-linejoin:miter;stroke:rgb(0%,0%,0%);stroke-opacity:1;stroke-miterlimit:10;" d="M 146.898438 121.546875 L 157.234375 116.277344 "/>
<path style=" stroke:none;fill-rule:nonzero;fill:rgb(100%,100%,100%);fill-opacity:1;" d="M 133.082031 127.214844 L 142.082031 127.214844 L 142.082031 141.214844 L 133.082031 141.214844 Z M 133.082031 127.214844 "/>
<g style="fill:rgb(0%,0%,100%);fill-opacity:1;">
  <use xlink:href="#glyph0-3" x="133.082031" y="138.353516"/>
</g>
<path style="fill:none;stroke-width:1.2;stroke-linecap:butt;stroke-linejoin:miter;stroke:rgb(0%,0%,0%);stroke-opacity:1;stroke-miterlimit:10;" d="M 162.917969 121.039062 L 175.082031 128.933594 "/>
<path style="fill:none;stroke-width:1.2;stroke-linecap:butt;stroke-linejoin:miter;stroke:rgb(0%,0%,100%);stroke-opacity:1;stroke-miterlimit:10;" d="M 175.082031 128.933594 L 187.246094 136.824219 "/>
<path style="fill:none;stroke-width:1.2;stroke-linecap:butt;stroke-linejoin:miter;stroke:rgb(0%,0%,0%);stroke-opacity:1;stroke-miterlimit:10;" d="M 162.917969 121.039062 L 164.425781 92.078125 "/>
<path style="fill:none;stroke-width:1.2;stroke-linecap:butt;stroke-linejoin:miter;stroke:rgb(0%,0%,100%);stroke-opacity:1;stroke-miterlimit:10;" d="M 187.246094 136.824219 L 186.492188 151.304688 "/>
<path style="fill:none;stroke-width:1.2;stroke-linecap:butt;stroke-linejoin:miter;stroke:rgb(0%,0%,0%);stroke-opacity:1;stroke-miterlimit:10;" d="M 186.492188 151.304688 L 185.738281 165.785156 "/>
<path style="fill:none;stroke-width:1.2;stroke-linecap:butt;stroke-linejoin:miter;stroke:rgb(0%,0%,100%);stroke-opacity:1;stroke-miterlimit:10;" d="M 187.246094 136.824219 L 200.164062 130.238281 "/>
<path style="fill:none;stroke-width:1.2;stroke-linecap:butt;stroke-linejoin:miter;stroke:rgb(0%,0%,0%);stroke-opacity:1;stroke-miterlimit:10;" d="M 200.164062 130.238281 L 213.078125 123.652344 "/>
<path style=" stroke:none;fill-rule:nonzero;fill:rgb(100%,100%,100%);fill-opacity:1;" d="M 183.246094 129.824219 L 192.246094 129.824219 L 192.246094 143.824219 L 183.246094 143.824219 Z M 183.246094 129.824219 "/>
<g style="fill:rgb(0%,0%,100%);fill-opacity:1;">
  <use xlink:href="#glyph0-3" x="183.246094" y="140.962891"/>
</g>
<path style="fill:none;stroke-width:1.2;stroke-linecap:butt;stroke-linejoin:miter;stroke:rgb(0%,0%,0%);stroke-opacity:1;stroke-miterlimit:10;" d="M 185.738281 165.785156 L 210.0625 181.574219 "/>
<path style="fill:none;stroke-width:1.2;stroke-linecap:butt;stroke-linejoin:miter;stroke:rgb(0%,0%,0%);stroke-opacity:1;stroke-miterlimit:10;" d="M 210.0625 181.574219 L 208.554688 210.535156 "/>
<path style="fill:none;stroke-width:1.2;stroke-linecap:butt;stroke-linejoin:miter;stroke:rgb(0%,0%,0%);stroke-opacity:1;stroke-miterlimit:10;" d="M 208.554688 210.535156 L 220.71875 218.425781 "/>
<path style="fill:none;stroke-width:1.2;stroke-linecap:butt;stroke-linejoin:miter;stroke:rgb(0%,0%,100%);stroke-opacity:1;stroke-miterlimit:10;" d="M 220.71875 218.425781 L 232.882812 226.320312 "/>
<path style=" stroke:none;fill-rule:nonzero;fill:rgb(100%,100%,100%);fill-opacity:1;" d="M 216.882812 215.320312 L 249.882812 215.320312 L 249.882812 237.320312 L 216.882812 237.320312 Z M 216.882812 215.320312 "/>
<g style="fill:rgb(0%,0%,100%);fill-opacity:1;">
  <use xlink:href="#glyph0-3" x="216.882812" y="229.485352"/>
  <use xlink:href="#glyph0-4" x="225.859375" y="229.485352"/>
</g>
<g style="fill:rgb(0%,0%,100%);fill-opacity:1;">
  <use xlink:href="#glyph1-1" x="234.882812" y="234.368164"/>
</g>
<g style="fill:rgb(0%,0%,100%);fill-opacity:1;">
  <use xlink:href="#glyph1-2" x="241.245117" y="224.602539"/>
</g>
<path style="fill:none;stroke-width:1.2;stroke-linecap:butt;stroke-linejoin:miter;stroke:rgb(0%,0%,0%);stroke-opacity:1;stroke-miterlimit:10;" d="M 213.078125 123.652344 L 237.40625 139.4375 "/>
<path style="fill:none;stroke-width:1.2;stroke-linecap:butt;stroke-linejoin:miter;stroke:rgb(0%,0%,0%);stroke-opacity:1;stroke-miterlimit:10;" d="M 219.226562 119.503906 L 238.6875 132.136719 "/>
<path style="fill:none;stroke-width:1.2;stroke-linecap:butt;stroke-linejoin:miter;stroke:rgb(0%,0%,0%);stroke-opacity:1;stroke-miterlimit:10;" d="M 214.585938 94.691406 L 213.078125 123.652344 "/>
<path style="fill:none;stroke-width:1.2;stroke-linecap:butt;stroke-linejoin:miter;stroke:rgb(0%,0%,0%);stroke-opacity:1;stroke-miterlimit:10;" d="M 237.40625 139.4375 L 263.242188 126.261719 "/>
<path style="fill:none;stroke-width:1.2;stroke-linecap:butt;stroke-linejoin:miter;stroke:rgb(0%,0%,0%);stroke-opacity:1;stroke-miterlimit:10;" d="M 263.242188 126.261719 L 264.75 97.300781 "/>
<path style="fill:none;stroke-width:1.2;stroke-linecap:butt;stroke-linejoin:miter;stroke:rgb(0%,0%,0%);stroke-opacity:1;stroke-miterlimit:10;" d="M 256.578125 123.011719 L 257.785156 99.84375 "/>
<path style="fill:none;stroke-width:1.2;stroke-linecap:butt;stroke-linejoin:miter;stroke:rgb(0%,0%,0%);stroke-opacity:1;stroke-miterlimit:10;" d="M 264.75 97.300781 L 240.421875 81.515625 "/>
<path style="fill:none;stroke-width:1.2;stroke-linecap:butt;stroke-linejoin:miter;stroke:rgb(0%,0%,0%);stroke-opacity:1;stroke-miterlimit:10;" d="M 240.421875 81.515625 L 214.585938 94.691406 "/>
<path style="fill:none;stroke-width:1.2;stroke-linecap:butt;stroke-linejoin:miter;stroke:rgb(0%,0%,0%);stroke-opacity:1;stroke-miterlimit:10;" d="M 240.9375 88.910156 L 220.269531 99.453125 "/>
<path style="fill:none;stroke-width:1.2;stroke-linecap:butt;stroke-linejoin:miter;stroke:rgb(0%,0%,0%);stroke-opacity:1;stroke-miterlimit:10;" d="M 214.585938 94.691406 L 202.425781 86.796875 "/>
<path style="fill:none;stroke-width:1.2;stroke-linecap:butt;stroke-linejoin:miter;stroke:rgb(0%,80%,0%);stroke-opacity:1;stroke-miterlimit:10;" d="M 202.425781 86.796875 L 190.261719 78.902344 "/>
<path style=" stroke:none;fill-rule:nonzero;fill:rgb(100%,100%,100%);fill-opacity:1;" d="M 178.261719 71.902344 L 190.261719 71.902344 L 190.261719 85.902344 L 178.261719 85.902344 Z M 178.261719 71.902344 "/>
<g style="fill:rgb(0%,80%,0%);fill-opacity:1;">
  <use xlink:href="#glyph0-1" x="178.261719" y="83.041016"/>
  <use xlink:href="#glyph0-2" x="186.640625" y="83.041016"/>
</g>
<path style="fill:none;stroke-width:1.2;stroke-linecap:butt;stroke-linejoin:miter;stroke:rgb(0%,0%,0%);stroke-opacity:1;stroke-miterlimit:10;" d="M 164.425781 92.078125 L 140.097656 76.292969 "/>
<path style="fill:none;stroke-width:1.2;stroke-linecap:butt;stroke-linejoin:miter;stroke:rgb(0%,0%,0%);stroke-opacity:1;stroke-miterlimit:10;" d="M 158.277344 96.222656 L 138.816406 83.59375 "/>
<path style="fill:none;stroke-width:1.2;stroke-linecap:butt;stroke-linejoin:miter;stroke:rgb(0%,0%,0%);stroke-opacity:1;stroke-miterlimit:10;" d="M 140.097656 76.292969 L 114.261719 89.464844 "/>
<path style="fill:none;stroke-width:1.2;stroke-linecap:butt;stroke-linejoin:miter;stroke:rgb(0%,0%,0%);stroke-opacity:1;stroke-miterlimit:10;" d="M 116.121094 86.605469 L 103.957031 78.710938 "/>
<path style="fill:none;stroke-width:1.2;stroke-linecap:butt;stroke-linejoin:miter;stroke:rgb(100%,0%,0%);stroke-opacity:1;stroke-miterlimit:10;" d="M 103.957031 78.710938 L 91.792969 70.816406 "/>
<path style="fill:none;stroke-width:1.2;stroke-linecap:butt;stroke-linejoin:miter;stroke:rgb(0%,0%,0%);stroke-opacity:1;stroke-miterlimit:10;" d="M 112.40625 92.328125 L 100.242188 84.433594 "/>
<path style="fill:none;stroke-width:1.2;stroke-linecap:butt;stroke-linejoin:miter;stroke:rgb(100%,0%,0%);stroke-opacity:1;stroke-miterlimit:10;" d="M 100.242188 84.433594 L 88.078125 76.539062 "/>
<path style=" stroke:none;fill-rule:nonzero;fill:rgb(100%,100%,100%);fill-opacity:1;" d="M 79.9375 66.679688 L 89.9375 66.679688 L 89.9375 80.679688 L 79.9375 80.679688 Z M 79.9375 66.679688 "/>
<g style="fill:rgb(100%,0%,0%);fill-opacity:1;">
  <use xlink:href="#glyph0-5" x="79.9375" y="77.818359"/>
</g>
</g>
</svg>

<svg xmlns="http://www.w3.org/2000/svg" xmlns:xlink="http://www.w3.org/1999/xlink" width="300pt" height="300pt" viewBox="0 0 300 300"><defs><symbol overflow="visible"><path d="M.594 2.125V-8.47h6V2.126zm.672-.672h4.671V-7.78h-4.67zm0 0"/></symbol><symbol overflow="visible" id="a"><path d="M7.734-8.078v1.25c-.406-.375-.836-.65-1.28-.828-.45-.188-.93-.282-1.438-.282-1 0-1.766.31-2.297.922-.533.618-.798 1.5-.798 2.657 0 1.15.266 2.028.797 2.64.53.618 1.296.923 2.296.923.507 0 .988-.094 1.437-.28.445-.19.875-.462 1.28-.83V-.67c-.417.28-.858.496-1.327.64-.46.134-.945.204-1.453.204-1.336 0-2.383-.406-3.14-1.22-.762-.81-1.14-1.913-1.14-3.31 0-1.408.378-2.517 1.14-3.33.757-.812 1.804-1.218 3.14-1.218.52 0 1.008.074 1.47.22.468.135.905.338 1.31.608zm0 0"/></symbol><symbol overflow="visible" id="b"><path d="M1.125-9.125h1.078V0H1.125zm0 0"/></symbol><symbol overflow="visible" id="c"><path d="M1.172-8.75h1.594l3.89 7.313V-8.75h1.14V0H6.204L2.328-7.313V0H1.172zm0 0"/></symbol><symbol overflow="visible" id="d"><path d="M1.172-8.75H2.36v3.594h4.296V-8.75h1.188V0H6.656v-4.172H2.36V0H1.17zm0 0"/></symbol><symbol overflow="visible" id="g"><path d="M4.734-7.953c-.867 0-1.554.324-2.062.97-.5.635-.75 1.51-.75 2.624 0 1.094.25 1.965.75 2.61.508.637 1.195.953 2.062.953.852 0 1.532-.316 2.032-.953.507-.645.765-1.516.765-2.61 0-1.113-.257-1.988-.764-2.624-.5-.645-1.18-.97-2.032-.97zm0-.953c1.22 0 2.192.414 2.922 1.234.74.824 1.11 1.93 1.11 3.313 0 1.376-.37 2.477-1.11 3.298C6.926-.24 5.953.17 4.734.17c-1.23 0-2.214-.41-2.953-1.234C1.04-1.882.673-2.984.673-4.36c0-1.382.367-2.488 1.11-3.312.738-.82 1.722-1.234 2.952-1.234zm0 0"/></symbol><symbol overflow="visible"><path d="M.5 1.766v-8.813h5v8.813zm.563-.547h3.875v-7.704H1.063zm0 0"/></symbol><symbol overflow="visible" id="e"><path d="M4.063-3.938c.468.106.832.32 1.093.64.27.314.407.704.407 1.173 0 .72-.25 1.277-.75 1.672-.493.398-1.196.594-2.11.594-.305 0-.617-.03-.937-.093-.325-.063-.657-.15-1-.266v-.952c.27.156.566.277.89.36.332.085.676.125 1.032.125.613 0 1.082-.118 1.406-.36.32-.25.484-.61.484-1.078 0-.426-.152-.758-.453-1-.305-.238-.72-.36-1.25-.36h-.86v-.812h.89c.49 0 .86-.098 1.11-.297.258-.195.39-.476.39-.843 0-.364-.135-.645-.405-.844-.262-.208-.637-.314-1.125-.314-.273 0-.563.032-.875.094-.313.055-.652.14-1.016.266v-.875c.375-.1.723-.18 1.047-.234.333-.05.642-.078.923-.078.75 0 1.344.172 1.78.516.44.336.658.793.658 1.375 0 .405-.117.75-.343 1.03-.23.273-.56.46-.984.563zm0 0"/></symbol><symbol overflow="visible" id="f"><path d="M4.594-6.266v2.72h2.718v.827H4.595V0H3.78v-2.72H1.064v-.827H3.78v-2.72zm0 0"/></symbol></defs><g><path fill="#fff" d="M0 0h300v300H0z"/><path d="M109.738 176.348l-12.164-7.89" stroke-width="1.2" stroke="#0c0" stroke-miterlimit="10" fill="none"/><path d="M97.574 168.457l-12.16-7.894" stroke-width="1.2" stroke="#000" stroke-miterlimit="10" fill="none"/><path d="M103.738 169.348h12v14h-12zm0 0" fill="#fff"/><g fill="#0c0"><use xlink:href="#a" x="103.738" y="180.486"/><use xlink:href="#b" x="112.117" y="180.486"/></g><path d="M85.414 160.563l-25.836 13.175M79.73 155.8l-20.668 10.54M86.922 131.602l-1.508 28.96M59.578 173.738l-24.328-15.79M35.25 157.95l1.508-28.962M42.215 155.41l1.207-23.172M36.758 128.988l25.836-13.172M62.594 115.816l24.328 15.786M61.313 123.117l19.46 12.63M86.922 131.602l12.914-6.586" stroke-width="1.2" stroke="#000" stroke-miterlimit="10" fill="none"/><path d="M99.836 125.016l12.918-6.59M112.754 118.426l24.328 15.79" stroke-width="1.2" stroke="#00f" stroke-miterlimit="10" fill="none"/><path d="M114.262 89.465l-.754 14.48" stroke-width="1.2" stroke="#000" stroke-miterlimit="10" fill="none"/><path d="M113.508 103.945l-.754 14.48" stroke-width="1.2" stroke="#00f" stroke-miterlimit="10" fill="none"/><path d="M108.754 111.426h9v14h-9zm0 0" fill="#fff"/><use xlink:href="#c" x="108.754" y="122.564" fill="#00f"/><path d="M137.082 134.215l12.918-6.59" stroke-width="1.2" stroke="#00f" stroke-miterlimit="10" fill="none"/><path d="M150 127.625l12.918-6.586" stroke-width="1.2" stroke="#000" stroke-miterlimit="10" fill="none"/><path d="M136.566 126.816l10.332-5.27" stroke-width="1.2" stroke="#00f" stroke-miterlimit="10" fill="none"/><path d="M146.898 121.547l10.336-5.27" stroke-width="1.2" stroke="#000" stroke-miterlimit="10" fill="none"/><path d="M133.082 127.215h9v14h-9zm0 0" fill="#fff"/><use xlink:href="#c" x="133.082" y="138.354" fill="#00f"/><path d="M162.918 121.04l12.164 7.894" stroke-width="1.2" stroke="#000" stroke-miterlimit="10" fill="none"/><path d="M175.082 128.934l12.164 7.89" stroke-width="1.2" stroke="#00f" stroke-miterlimit="10" fill="none"/><path d="M162.918 121.04l1.508-28.962" stroke-width="1.2" stroke="#000" stroke-miterlimit="10" fill="none"/><path d="M187.246 136.824l-.754 14.48" stroke-width="1.2" stroke="#00f" stroke-miterlimit="10" fill="none"/><path d="M186.492 151.305l-.754 14.48" stroke-width="1.2" stroke="#000" stroke-miterlimit="10" fill="none"/><path d="M187.246 136.824l12.918-6.586" stroke-width="1.2" stroke="#00f" stroke-miterlimit="10" fill="none"/><path d="M200.164 130.238l12.914-6.586" stroke-width="1.2" stroke="#000" stroke-miterlimit="10" fill="none"/><path d="M183.246 129.824h9v14h-9zm0 0" fill="#fff"/><use xlink:href="#c" x="183.246" y="140.963" fill="#00f"/><path d="M185.738 165.785l24.325 15.79M210.063 181.574l-1.508 28.96M208.555 210.535l12.164 7.89" stroke-width="1.2" stroke="#000" stroke-miterlimit="10" fill="none"/><path d="M220.72 218.426l12.163 7.894" stroke-width="1.2" stroke="#00f" stroke-miterlimit="10" fill="none"/><path d="M216.883 215.32h33v22h-33zm0 0" fill="#fff"/><g fill="#00f"><use xlink:href="#c" x="216.883" y="229.485"/><use xlink:href="#d" x="225.859" y="229.485"/></g><use xlink:href="#e" x="234.883" y="234.368" fill="#00f"/><use xlink:href="#f" x="241.245" y="224.603" fill="#00f"/><path d="M213.078 123.652l24.328 15.785M219.227 119.504l19.46 12.633M214.586 94.69l-1.508 28.962M237.406 139.438l25.836-13.176M263.242 126.262l1.508-28.96M256.578 123.012l1.207-23.168M264.75 97.3l-24.328-15.784M240.422 81.516L214.586 94.69M240.938 88.91L220.27 99.453M214.586 94.69l-12.16-7.893" stroke-width="1.2" stroke="#000" stroke-miterlimit="10" fill="none"/><path d="M202.426 86.797l-12.164-7.895" stroke-width="1.2" stroke="#0c0" stroke-miterlimit="10" fill="none"/><path d="M178.262 71.902h12v14h-12zm0 0" fill="#fff"/><g fill="#0c0"><use xlink:href="#a" x="178.262" y="83.041"/><use xlink:href="#b" x="186.641" y="83.041"/></g><path d="M164.426 92.078l-24.328-15.785M158.277 96.223l-19.46-12.63M140.098 76.293l-25.836 13.172M116.12 86.605l-12.163-7.894" stroke-width="1.2" stroke="#000" stroke-miterlimit="10" fill="none"/><path d="M103.957 78.71l-12.164-7.894" stroke-width="1.2" stroke="#f00" stroke-miterlimit="10" fill="none"/><path d="M112.406 92.328l-12.164-7.894" stroke-width="1.2" stroke="#000" stroke-miterlimit="10" fill="none"/><path d="M100.242 84.434L88.078 76.54" stroke-width="1.2" stroke="#f00" stroke-miterlimit="10" fill="none"/><path d="M79.938 66.68h10v14h-10zm0 0" fill="#fff"/><use xlink:href="#g" x="79.938" y="77.818" fill="#f00"/></g></svg>
